X:1
T:Title
%%score ( 1 2 3 ) { 4 | 5 }
L:1/8
Q:1/4=83
M:3/4
K:F
V:1 treble nm="Drawbar Organ, Soprano"
V:2 treble 
V:3 treble 
V:4 bass nm="Church Organ, O Land of God"
V:5 bass 
V:1
 AG F A3 | CD F A3 | AG A B3 | DF E C3 | AG F A3 | CD F A3 | AG AB FA- | A G2 F3 | FE F B3 | %9
w: By~Charles~Hutchinson~Gabriel * * *|||||||||
 DF G A3 | FG A c3 | BC B A3 | FE F B3 | DF G A3 | FG A c3 | BA G F3 | z2 z d3 | z2 z e3 | %18
w: |||||||||
 z d z e3 | [Bd][Ac] [GB] [FA]3 | z2 z d3 | [FG][FA] [EB] [Fc]3 | [Gc][Fc] [Ec][Fc] [FB][FA]- | %23
w: |||||
 [FA] [EG]2 [FA]3 | [FA][EB] [Fc] [Fd]3 | [FG][FA] [EB][Fc] [Gc][Fc] | [Ec][Fc] [FB] [FA]3 | %27
w: ||||
 F[EG]/[EG]/- [EG] [CF]3- | [CF]4 z2 |] %29
w: ||
V:2
 x6 | x6 | x6 | x6 | x6 | x6 | x6 | x6 | x6 | x6 | x6 | x6 | x6 | x6 | x6 | x6 | %16
 [Fc][Fc] [FA]F .F2 | d[FA] [Af]B .B2 | cB- [Bf]B BB | x6 | AB [Fc]F FF | x6 | x6 | x6 | x6 | x6 | %26
 x6 | x6 | x6 |] %29
V:3
 x6 | x6 | x6 | x6 | x6 | x6 | x6 | x6 | x6 | x6 | x6 | x6 | x6 | x6 | x6 | x6 | z2 z2 z F- | %17
 F z z2 z B- | B z z2 z2 | x6 | x6 | x6 | x6 | x6 | x6 | x6 | x6 | x6 | x6 |] %29
V:4
 CB, A, C3 | A,B,[K:treble] ^C =C3 | FE _E .D3 | B,D B, A,3- | A,2 z C3 | A,B,[K:treble] ^C =C3 | %6
 FE _ED ^C=C- | C[K:bass] B,2 A,3 | z2 z D D,F, | B,D[K:treble] ^C =C3 | A,B, C[K:bass] E3 | %11
 G,E, D C3 | z2 z D D,F, | B,D[K:treble] ^C =C3 | A,B, C E3 | DC[K:bass] B, A,3 | A,A, CA, A,A,- | %17
 A,[K:treble] C2 C CC- | C C2 C CC- | C C2 C CC | z2[K:bass] A,B, B,B, | DC B, A,3 | %22
 B,A, B,[K:treble]C DC- | C C2 C3 | CC C B,3 | DC[K:bass] B,A, B,A, | B,_E D C3 | %27
 A,B,/B,/- B, A,3- | A,4 z2 |] %29
V:5
 z2 z F,, C,F,- | F,3 F,, C,F,- | F,3 B,, D,F,- | F,3 F,, C,F, | CB, A,F,, C,F,- | F,3 F,, C,F,- | %6
 F,3 B,,2 C,- | C,3 F, C,F,, | z2 _E B,,3- | B,,3 F,, C,F,- | F,3 C,, G,,C,- | C,3 F,, C,F, | %12
 z2 _E B,,3- | B,,3 F,, C,F,- | F,3 C, G,,C,,- | C,,3 [F,,F,] C,F,, | F,F, F,F, F,F,- | %17
 F, F,2 G, E,C,- | C, C,2 G, E,C,- | C, C,2 F, F,F, | z2 F,B,, B,,B,, | B,A, G, F,3 | %22
 E,F, G,A, .B,2 | z C,2 F,3 | F,G, .A,2 z2 | [B,,B,][A,,A,] [G,,G,][F,,F,] [E,,E,][F,,F,] | %26
 [G,,G,][A,,A,] [B,,B,] C,3 | C,C,/C,/- C, [F,,F,]3- | [F,,F,]4 z2 |] %29

